Newaita-dark/actions/32/wallet-open.svg

<svg height="32" viewBox="0 0 32 32" width="32" xmlns="http://www.w3.org/2000/svg"><path d="m3.96875 6.203125c-.734375 0-1.324219.589844-1.324219 1.324219v18.523437c0 .730469.589844 1.320313 1.324219 1.320313h23.816406c.730469 0 1.320313-.589844 1.320313-1.320313v-18.523437c0-.734375-.589844-1.324219-1.320313-1.324219h-7.941406v2.648437h5.957031c.363281 0 .660157.292969.660157.660157v14.554687c0 .363282-.296876.660156-.660157.660156h-19.847656c-.367187 0-.660156-.296874-.660156-.660156v-14.554687c0-.367188.292969-.660157.660156-.660157h5.953125v-2.648437zm0 0" fill="#e0e0e0"/><g fill="#f44336"><path d="m13.230469 4.878906c-.734375 0-1.324219.59375-1.324219 1.324219v7.9375c0 .734375.589844 1.324219 1.324219 1.324219h5.292969c.730468 0 1.320312-.589844 1.320312-1.324219v-7.9375c0-.730469-.589844-1.324219-1.320312-1.324219zm.660156 1.324219h3.96875c.367187 0 .664063.296875.664063.664063v6.613281c0 .367187-.296876.660156-.664063.660156h-3.96875c-.363281 0-.660156-.292969-.660156-.660156v-6.613281c0-.367188.296875-.664063.660156-.664063zm0 0"/><path d="m15.875 7.527344c.730469 0 1.324219.589844 1.324219 1.324218 0 .730469-.59375 1.320313-1.324219 1.320313s-1.320312-.589844-1.320312-1.320313c0-.734374.589843-1.324218 1.320312-1.324218zm0 0"/></g></svg>

<svg xmlns="http://www.w3.org/2000/svg" xmlns:xlink="http://www.w3.org/1999/xlink" width="32px" height="32px" viewBox="0 0 32 32" version="1.1">
<g id="surface1">
     <defs>
  <style id="current-color-scheme" type="text/css">
   .ColorScheme-Text { color:#eeeeee; } .ColorScheme-Highlight { color:#424242; }
  </style>
 </defs>
<path style="fill:currentColor" class="ColorScheme-Text" d="M 3.96875 6.203125 C 3.234375 6.203125 2.644531 6.792969 2.644531 7.527344 L 2.644531 26.050781 C 2.644531 26.78125 3.234375 27.371094 3.96875 27.371094 L 27.785156 27.371094 C 28.515625 27.371094 29.105469 26.78125 29.105469 26.050781 L 29.105469 7.527344 C 29.105469 6.792969 28.515625 6.203125 27.785156 6.203125 L 19.84375 6.203125 L 19.84375 8.851562 L 25.800781 8.851562 C 26.164062 8.851562 26.460938 9.144531 26.460938 9.511719 L 26.460938 24.066406 C 26.460938 24.429688 26.164062 24.726562 25.800781 24.726562 L 5.953125 24.726562 C 5.585938 24.726562 5.292969 24.429688 5.292969 24.066406 L 5.292969 9.511719 C 5.292969 9.144531 5.585938 8.851562 5.953125 8.851562 L 11.90625 8.851562 L 11.90625 6.203125 Z M 3.96875 6.203125 "/>
<path style=" stroke:none;fill-rule:nonzero;fill:rgb(95.686275%,26.274511%,21.176471%);fill-opacity:1;" d="M 13.230469 4.878906 C 12.496094 4.878906 11.90625 5.472656 11.90625 6.203125 L 11.90625 14.140625 C 11.90625 14.875 12.496094 15.464844 13.230469 15.464844 L 18.523438 15.464844 C 19.253906 15.464844 19.84375 14.875 19.84375 14.140625 L 19.84375 6.203125 C 19.84375 5.472656 19.253906 4.878906 18.523438 4.878906 Z M 13.890625 6.203125 L 17.859375 6.203125 C 18.226562 6.203125 18.523438 6.5 18.523438 6.867188 L 18.523438 13.480469 C 18.523438 13.847656 18.226562 14.140625 17.859375 14.140625 L 13.890625 14.140625 C 13.527344 14.140625 13.230469 13.847656 13.230469 13.480469 L 13.230469 6.867188 C 13.230469 6.5 13.527344 6.203125 13.890625 6.203125 Z M 13.890625 6.203125 "/>
<path style=" stroke:none;fill-rule:nonzero;fill:rgb(95.686275%,26.274511%,21.176471%);fill-opacity:1;" d="M 15.875 7.527344 C 16.605469 7.527344 17.199219 8.117188 17.199219 8.851562 C 17.199219 9.582031 16.605469 10.171875 15.875 10.171875 C 15.144531 10.171875 14.554688 9.582031 14.554688 8.851562 C 14.554688 8.117188 15.144531 7.527344 15.875 7.527344 Z M 15.875 7.527344 "/>
</g>
</svg>
